static/img/kroki/002166c02820ad4ea3c9728520dabefb.svg

<?xml version="1.0" encoding="us-ascii" standalone="no"?><svg xmlns="http://www.w3.org/2000/svg" xmlns:xlink="http://www.w3.org/1999/xlink" contentStyleType="text/css" height="374px" preserveAspectRatio="none" style="width:399px;height:374px;" version="1.1" viewBox="0 0 399 374" width="399px" zoomAndPan="magnify"><defs/><g><!--class aws_ec2_network_interface--><g id="elem_aws_ec2_network_interface"><rect codeLine="23" fill="#3D176E" height="39.7891" id="aws_ec2_network_interface" rx="2.5" ry="2.5" style="stroke:#000D19;stroke-width:0.5;" width="275" x="51" y="328.58"/><ellipse cx="66" cy="348.4745" fill="#ADD1B2" rx="11" ry="11" style="stroke:#181818;stroke-width:1.0;"/><path d="M68.9688,354.1152 Q68.3906,354.412 67.75,354.5527 Q67.1094,354.7089 66.4063,354.7089 Q63.9063,354.7089 62.5781,353.0683 Q61.2656,351.412 61.2656,348.287 Q61.2656,345.162 62.5781,343.5058 Q63.9063,341.8495 66.4063,341.8495 Q67.1094,341.8495 67.75,342.0058 Q68.4063,342.162 68.9688,342.4589 L68.9688,345.1777 Q68.3438,344.5995 67.75,344.3339 Q67.1563,344.0527 66.5313,344.0527 Q65.1875,344.0527 64.5,345.1308 Q63.8125,346.1933 63.8125,348.287 Q63.8125,350.3808 64.5,351.4589 Q65.1875,352.5214 66.5313,352.5214 Q67.1563,352.5214 67.75,352.2558 Q68.3438,351.9745 68.9688,351.3964 L68.9688,354.1152 Z " fill="#000000"/><text fill="#D9B8FF" font-family="Helvetica" font-size="17" lengthAdjust="spacing" textLength="233" x="85" y="354.3598">aws_ec2_network_interface</text></g><!--class aws_resource--><g id="elem_aws_resource"><rect codeLine="26" fill="#3D176E" height="39.7891" id="aws_resource" rx="2.5" ry="2.5" style="stroke:#000D19;stroke-width:0.5;" width="155" x="7" y="167.79"/><ellipse cx="22" cy="187.6845" fill="#ADD1B2" rx="11" ry="11" style="stroke:#181818;stroke-width:1.0;"/><path d="M24.9688,193.3252 Q24.3906,193.622 23.75,193.7627 Q23.1094,193.9189 22.4063,193.9189 Q19.9063,193.9189 18.5781,192.2783 Q17.2656,190.622 17.2656,187.497 Q17.2656,184.372 18.5781,182.7158 Q19.9063,181.0595 22.4063,181.0595 Q23.1094,181.0595 23.75,181.2158 Q24.4063,181.372 24.9688,181.6689 L24.9688,184.3877 Q24.3438,183.8095 23.75,183.5439 Q23.1563,183.2627 22.5313,183.2627 Q21.1875,183.2627 20.5,184.3408 Q19.8125,185.4033 19.8125,187.497 Q19.8125,189.5908 20.5,190.6689 Q21.1875,191.7314 22.5313,191.7314 Q23.1563,191.7314 23.75,191.4658 Q24.3438,191.1845 24.9688,190.6064 L24.9688,193.3252 Z " fill="#000000"/><text fill="#D9B8FF" font-family="Helvetica" font-size="17" lengthAdjust="spacing" textLength="113" x="41" y="193.5698">aws_resource</text></g><!--class network_interface--><g id="elem_network_interface"><rect codeLine="29" fill="#3D176E" height="39.7891" id="network_interface" rx="2.5" ry="2.5" style="stroke:#000D19;stroke-width:0.5;" width="195" x="197" y="167.79"/><ellipse cx="212" cy="187.6845" fill="#ADD1B2" rx="11" ry="11" style="stroke:#181818;stroke-width:1.0;"/><path d="M214.9688,193.3252 Q214.3906,193.622 213.75,193.7627 Q213.1094,193.9189 212.4063,193.9189 Q209.9063,193.9189 208.5781,192.2783 Q207.2656,190.622 207.2656,187.497 Q207.2656,184.372 208.5781,182.7158 Q209.9063,181.0595 212.4063,181.0595 Q213.1094,181.0595 213.75,181.2158 Q214.4063,181.372 214.9688,181.6689 L214.9688,184.3877 Q214.3438,183.8095 213.75,183.5439 Q213.1563,183.2627 212.5313,183.2627 Q211.1875,183.2627 210.5,184.3408 Q209.8125,185.4033 209.8125,187.497 Q209.8125,189.5908 210.5,190.6689 Q211.1875,191.7314 212.5313,191.7314 Q213.1563,191.7314 213.75,191.4658 Q214.3438,191.1845 214.9688,190.6064 L214.9688,193.3252 Z " fill="#000000"/><text fill="#D9B8FF" font-family="Helvetica" font-size="17" lengthAdjust="spacing" textLength="153" x="231" y="193.5698">network_interface</text></g><!--class resource--><g id="elem_resource"><rect codeLine="32" fill="#3D176E" height="39.7891" id="resource" rx="2.5" ry="2.5" style="stroke:#000D19;stroke-width:0.5;" width="113" x="132" y="7"/><ellipse cx="147" cy="26.8945" fill="#ADD1B2" rx="11" ry="11" style="stroke:#181818;stroke-width:1.0;"/><path d="M149.9688,32.5352 Q149.3906,32.832 148.75,32.9727 Q148.1094,33.1289 147.4063,33.1289 Q144.9063,33.1289 143.5781,31.4883 Q142.2656,29.832 142.2656,26.707 Q142.2656,23.582 143.5781,21.9258 Q144.9063,20.2695 147.4063,20.2695 Q148.1094,20.2695 148.75,20.4258 Q149.4063,20.582 149.9688,20.8789 L149.9688,23.5977 Q149.3438,23.0195 148.75,22.7539 Q148.1563,22.4727 147.5313,22.4727 Q146.1875,22.4727 145.5,23.5508 Q144.8125,24.6133 144.8125,26.707 Q144.8125,28.8008 145.5,29.8789 Q146.1875,30.9414 147.5313,30.9414 Q148.1563,30.9414 148.75,30.6758 Q149.3438,30.3945 149.9688,29.8164 L149.9688,32.5352 Z " fill="#000000"/><text fill="#D9B8FF" font-family="Helvetica" font-size="17" lengthAdjust="spacing" textLength="71" x="166" y="32.7798">resource</text></g><!--reverse link aws_resource to aws_ec2_network_interface--><g id="link_aws_resource_aws_ec2_network_interface"><path codeLine="35" d="M106.9024,222.8976 C126.8924,253.4176 155.89,297.69 175.91,328.25 " fill="none" id="aws_resource-backto-aws_ec2_network_interface" style="stroke:#FFAF37;stroke-width:2.0;"/><polygon fill="none" points="97.04,207.84,101.8832,226.1851,111.9217,219.6101,97.04,207.84" style="stroke:#FFAF37;stroke-width:2.0;"/></g><!--reverse link network_interface to aws_ec2_network_interface--><g id="link_network_interface_aws_ec2_network_interface"><path codeLine="36" d="M271.7175,222.8116 C251.3475,253.3316 221.73,297.69 201.33,328.25 " fill="none" id="network_interface-backto-aws_ec2_network_interface" style="stroke:#FFAF37;stroke-width:2.0;"/><polygon fill="none" points="281.71,207.84,266.7269,219.4808,276.708,226.1425,281.71,207.84" style="stroke:#FFAF37;stroke-width:2.0;"/></g><!--reverse link resource to aws_resource--><g id="link_resource_aws_resource"><path codeLine="37" d="M166.0976,62.1076 C146.1076,92.6276 117.11,136.9 97.09,167.46 " fill="none" id="resource-backto-aws_resource" style="stroke:#FFAF37;stroke-width:2.0;"/><polygon fill="none" points="175.96,47.05,161.0783,58.8201,171.1168,65.3951,175.96,47.05" style="stroke:#FFAF37;stroke-width:2.0;"/></g><!--reverse link resource to network_interface--><g id="link_resource_network_interface"><path codeLine="38" d="M211.2825,62.0216 C231.6525,92.5416 261.27,136.9 281.67,167.46 " fill="none" id="resource-backto-network_interface" style="stroke:#FFAF37;stroke-width:2.0;"/><polygon fill="none" points="201.29,47.05,206.292,65.3525,216.2731,58.6908,201.29,47.05" style="stroke:#FFAF37;stroke-width:2.0;"/></g><!--SRC=[XP3DRi8m48JlUGfBd2C5K1iYzG98LNj1LUazsiHhi9BOqTffH7_UlL1AvSGaN7U-cPtTlUJ8iAhjWLLOPKWcC8LKDH1KR4casxKkDR69423cSLzyrChU13PG8Nl2yXsjpA5FlErbNYWqXiqSQGLviIFTA7wEjmJA72LKrg7M9HYpj9ParbXqol0aMmZH9_kXapcVnlVeOPeuqXyIHH6V9dtavghHk_-9hVn0DdMVjj4MlPhUYbzgjEM9S4fwXrxqmOulmBbKEtRdp5xFdKWXTURRFN3TdcW1fN7N68k4sXvgN7jNORBW8huAFm_1GNvw7OFMf9ZFKeMsrLIaKXsj0d9adq7mxK24HZVKdO-QkePEnCDN68R3gmC_zvRZIlHbrDTyymy0]--></g></svg>

<svg xmlns="http://www.w3.org/2000/svg" width="399" height="374" viewBox="0 0 399 374"><rect width="275" height="39.789" x="51" y="328.58" fill="#3D176E" rx="2.5" ry="2.5" style="stroke:#000d19;stroke-width:.5"/><circle cx="66" cy="348.474" r="11" fill="#ADD1B2" style="stroke:#181818;stroke-width:1"/><path d="M68.969 354.115q-.578.297-1.219.438-.64.156-1.344.156-2.5 0-3.828-1.64-1.312-1.657-1.312-4.782t1.312-4.781q1.328-1.656 3.828-1.656.703 0 1.344.156.656.156 1.219.453v2.719q-.625-.579-1.219-.844-.594-.281-1.219-.281-1.344 0-2.031 1.078-.687 1.062-.687 3.156t.687 3.172q.688 1.062 2.031 1.062.625 0 1.219-.265.594-.281 1.219-.86z"/><text x="85" y="354.36" fill="#D9B8FF" font-family="Helvetica" font-size="17" textLength="233">aws_ec2_network_interface</text><rect width="155" height="39.789" x="7" y="167.79" fill="#3D176E" rx="2.5" ry="2.5" style="stroke:#000d19;stroke-width:.5"/><circle cx="22" cy="187.685" r="11" fill="#ADD1B2" style="stroke:#181818;stroke-width:1"/><path d="M24.969 193.325q-.578.297-1.219.438-.64.156-1.344.156-2.5 0-3.828-1.64-1.312-1.657-1.312-4.782t1.312-4.781q1.328-1.656 3.828-1.656.703 0 1.344.156.656.156 1.219.453v2.719q-.625-.578-1.219-.844-.594-.281-1.219-.281-1.343 0-2.031 1.078-.687 1.062-.687 3.156t.687 3.172q.688 1.062 2.031 1.062.625 0 1.219-.265.594-.281 1.219-.86z"/><text x="41" y="193.57" fill="#D9B8FF" font-family="Helvetica" font-size="17" textLength="113">aws_resource</text><rect width="195" height="39.789" x="197" y="167.79" fill="#3D176E" rx="2.5" ry="2.5" style="stroke:#000d19;stroke-width:.5"/><circle cx="212" cy="187.685" r="11" fill="#ADD1B2" style="stroke:#181818;stroke-width:1"/><path d="M214.969 193.325q-.578.297-1.219.438-.64.156-1.344.156-2.5 0-3.828-1.64-1.312-1.657-1.312-4.782t1.312-4.781q1.328-1.656 3.828-1.656.703 0 1.344.156.656.156 1.219.453v2.719q-.625-.578-1.219-.844-.594-.281-1.219-.281-1.344 0-2.031 1.078-.687 1.062-.687 3.156t.687 3.172q.688 1.062 2.031 1.062.625 0 1.219-.265.594-.281 1.219-.86z"/><text x="231" y="193.57" fill="#D9B8FF" font-family="Helvetica" font-size="17" textLength="153">network_interface</text><rect width="113" height="39.789" x="132" y="7" fill="#3D176E" rx="2.5" ry="2.5" style="stroke:#000d19;stroke-width:.5"/><circle cx="147" cy="26.895" r="11" fill="#ADD1B2" style="stroke:#181818;stroke-width:1"/><path d="M149.969 32.535q-.578.297-1.219.438-.64.156-1.344.156-2.5 0-3.828-1.64-1.312-1.657-1.312-4.782t1.312-4.781q1.328-1.656 3.828-1.656.703 0 1.344.156.656.156 1.219.453v2.719q-.625-.578-1.219-.844-.594-.281-1.219-.281-1.344 0-2.031 1.078-.687 1.062-.687 3.156t.687 3.172q.688 1.062 2.031 1.062.625 0 1.219-.265.594-.281 1.219-.86z"/><text x="166" y="32.78" fill="#D9B8FF" font-family="Helvetica" font-size="17" textLength="71">resource</text><path fill="none" d="M106.902 222.898c19.99 30.52 48.988 74.792 69.008 105.352M97.04 207.84l4.843 18.345 10.039-6.575zm174.678 14.972c-20.37 30.52-49.988 74.878-70.388 105.438m80.38-120.41-14.983 11.64 9.981 6.663zM166.098 62.108C146.108 92.628 117.11 136.9 97.09 167.46m78.87-120.41-14.882 11.77 10.039 6.575zm35.323 14.972c20.37 30.52 49.987 74.878 70.387 105.438M201.29 47.05l5.002 18.303 9.981-6.662z" style="stroke:#ffaf37;stroke-width:2"/></svg>
